X:566
T:Miss Maria Dundas
R:Reel
B:The Athole Collection
M:C|
L:1/8
K:F
f|cF F/F/F c2 Ac|dfef cAAf|cF F/F/F c2 Ac|dfcA G/G/G G:|
g|f/g/a ga fddf|cfAf cAAc|f/g/a ga fddf|cfcA G/G/G Gg|
f/g/a ga fddf|cfAf cAAc|faga fgdf|cdAf G/G/G G||

